src/assets/inicio/skills-icon.svg

<svg width="24" height="24" viewBox="0 0 24 24" fill="none" xmlns="http://www.w3.org/2000/svg">
<g clip-path="url(#clip0_136_4)">
<rect width="24" height="24" fill="#EF233C"/>
<path fill-rule="evenodd" clip-rule="evenodd" d="M15.5171 24H3.87111C4.39311 20.965 4.76811 17.838 3.44911 15.972C1.78311 13.615 1.01911 11.23 1.00011 9.089C0.955108 3.899 5.23111 -0.0250033 11.2031 -3.28412e-06C18.4391 0.0299967 20.5311 6.156 20.9761 7.943C21.3161 9.312 20.0781 9.812 20.8101 10.645C21.4061 11.324 21.8451 12.009 22.5991 12.822C22.8911 13.137 23.0041 13.468 23.0001 13.765C22.9941 14.199 22.7091 14.563 22.2521 14.723C21.8231 14.873 21.4921 15.043 21.0371 15.166C20.8921 16.326 20.5161 17.738 20.2391 18.723C19.5021 21.343 17.3431 19.782 16.3581 21.33C15.9321 21.998 15.7181 23.068 15.5171 24ZM11.2241 15.684C11.3411 15.683 11.4541 15.644 11.5311 15.575L12.1251 15.184H9.87511L10.4691 15.575C10.5461 15.644 10.6591 15.684 10.7771 15.684H11.2241ZM12.1461 14.684C12.2841 14.683 12.3961 14.572 12.3961 14.434C12.3961 14.296 12.2841 14.184 12.1461 14.184H9.86711C9.72911 14.184 9.61711 14.296 9.61711 14.434C9.61711 14.572 9.72911 14.684 9.86711 14.684H12.1461ZM12.3931 13.684C12.3931 11.681 14.0001 10.854 14.0001 9.07C14.0001 7.21 12.4991 6.184 10.9991 6.184C9.49911 6.184 8.00011 7.208 8.00011 9.07C8.00011 10.854 9.60711 11.709 9.60711 13.684H12.3931ZM14.8701 10.069L16.2191 10.681L15.8061 11.592L14.5071 11.004C14.6581 10.704 14.7831 10.396 14.8701 10.069ZM7.13111 10.069C7.21811 10.401 7.33911 10.7 7.49111 11.004L6.19511 11.592L5.78111 10.681L7.13111 10.069ZM16.5001 9.184V8.184H14.9061C14.9791 8.511 15.0091 8.849 14.9991 9.184H16.5001ZM7.00211 9.184V9.181C6.99211 8.847 7.02211 8.511 7.09411 8.184H5.50011V9.184H7.00211ZM14.0221 6.47L15.2641 5.588L15.8431 6.404L14.5911 7.292C14.4451 7.001 14.2551 6.726 14.0221 6.47ZM7.97811 6.469C7.74811 6.721 7.56011 6.994 7.40911 7.292L6.15811 6.404L6.73611 5.588L7.97811 6.469ZM12.4131 5.423L13.0761 4.078L13.9731 4.521L13.3091 5.866C13.0311 5.682 12.7291 5.534 12.4131 5.423ZM9.58711 5.422C9.27211 5.532 8.96911 5.68 8.69011 5.864L8.02711 4.521L8.92411 4.078L9.58711 5.422ZM11.5001 5.214C11.1661 5.175 10.8461 5.173 10.5001 5.213V3.684H11.5001V5.214Z" fill="black"/>
</g>
<defs>
<clipPath id="clip0_136_4">
<rect width="24" height="24" fill="white"/>
</clipPath>
</defs>
</svg>

<svg xmlns="http://www.w3.org/2000/svg" width="24" height="24" fill="none"><g clip-path="url(#a)"><path fill="#EF233C" d="M0 0h24v24H0z"/><path fill="#000" fill-rule="evenodd" d="M15.517 24H3.871c.522-3.035.897-6.162-.422-8.028C1.783 13.615 1.02 11.23 1 9.089.955 3.899 5.231-.025 11.203 0c7.236.03 9.328 6.156 9.773 7.943.34 1.369-.898 1.869-.166 2.702.596.679 1.035 1.364 1.79 2.177.291.315.404.646.4.943-.006.434-.29.798-.748.958-.429.15-.76.32-1.215.443-.145 1.16-.52 2.572-.798 3.557-.737 2.62-2.896 1.059-3.88 2.607-.427.668-.64 1.738-.842 2.67Zm-4.293-8.316a.47.47 0 0 0 .307-.109l.594-.391h-2.25l.594.391c.077.069.19.109.308.109h.447Zm.922-1a.25.25 0 0 0 0-.5H9.867a.25.25 0 0 0 0 .5h2.28Zm.247-1c0-2.003 1.607-2.83 1.607-4.614 0-1.86-1.5-2.886-3-2.886S8 7.208 8 9.07c0 1.784 1.607 2.639 1.607 4.614h2.786Zm2.477-3.615 1.35.612-.414.911-1.299-.588c.151-.3.276-.608.363-.935Zm-7.739 0c.087.332.208.631.36.935l-1.296.588-.414-.911 1.35-.612Zm9.37-.885v-1h-1.595c.073.327.103.665.093 1H16.5Zm-9.499 0v-.003c-.01-.334.02-.67.092-.997H5.5v1h1.502Zm7.02-2.714 1.242-.882.58.816-1.253.888a3.66 3.66 0 0 0-.569-.822Zm-6.044-.001c-.23.252-.418.525-.569.823l-1.25-.888.577-.816 1.242.881Zm4.435-1.046.663-1.345.897.443-.664 1.345a4.063 4.063 0 0 0-.896-.443Zm-2.826-.001c-.315.11-.618.258-.897.442l-.663-1.343.897-.443.663 1.344Zm1.913-.208a4.233 4.233 0 0 0-1-.001V3.684h1v1.53Z" clip-rule="evenodd"/></g><defs><clipPath id="a"><path fill="#fff" d="M0 0h24v24H0z"/></clipPath></defs></svg>
